X: 30425
T: Old Torn Petticoat, The
R: reel
M: 4/4
K: Adorian
ed|cdBc AE{G}ED|G2 [BG]G DG[BG]G|[cE]E[BE]E AE{G}ED|GABG A2 AB|
(3ccA BA GE{G}ED|G2 [BG]G DG[BG]G|[cE]E[BE]E AE{G}ED|GABG A2 AB|
c2 Bc AGED|G2 [BG]G DG[BG]G|[cE]E[BE]E AE{G}ED|GABG A2 AB|
3ccA BA GE{G}ED|G2 [BG]G DG[BG]G|[cE]E[BE]E A~E3|GA[BE]G [A3E3]A||
(3Bcd ef g{a}gea{b}|aged cAA2|(3Bcd ef gedg|eaag a3 a|
bagb agef|~g3e dB[GB]B|c2 (3BcB AE{G}ED|GA[BE]G [A3E3]A|
(3Bcd ef g{a}gea{b}|aged cAAe|(3Bcd ef gedg|eaag a(3aaa|
bagb agef|~g3e dB[GB]B|c2 (3BcB AE{G}ED|GA[BE]G A3 A||

